www/assets/icons/no_food.svg

<svg width="24" height="24" viewBox="0 0 24 24" xmlns="http://www.w3.org/2000/svg" fill='currentColor'><g clip-path="url(#clip0_1616_3215)"><path d="M11.505 8.35984L11.155 4.83984H16.155V0.839844H18.155V4.83984H23.155L21.775 18.6298L11.505 8.35984ZM1.15497 20.8398V21.8398C1.15497 22.3898 1.60497 22.8398 2.15497 22.8398H15.155C15.705 22.8398 16.155 22.3898 16.155 21.8398V20.8398H1.15497ZM22.055 21.7398L2.25497 1.93984L0.844971 3.34984L6.54497 9.04984C3.43497 9.70984 1.15497 11.8298 1.15497 14.8398H12.325L14.325 16.8398H1.15497V18.8398H16.155V18.6698L20.645 23.1598L22.055 21.7398Z"/></g><defs><clipPath id="clip0_1616_3215"><rect width="24" height="24"/></clipPath></defs></svg>

<svg xmlns="http://www.w3.org/2000/svg" width="24" height="24" viewBox="0 0 24 24" fill='currentColor'><g clip-path="url(#a)"><path d="m11.505 8.36-.35-3.52h5v-4h2v4h5l-1.38 13.79zM1.155 20.84v1c0 .55.45 1 1 1h13c.55 0 1-.45 1-1v-1zm20.9.9-19.8-19.8-1.41 1.41 5.7 5.7c-3.11.66-5.39 2.78-5.39 5.79h11.17l2 2H1.155v2h15v-.17l4.49 4.49z"/></g><defs><clipPath id="a"><path d="M0 0h24v24H0z"/></clipPath></defs></svg>
